X: 37733
T: Soldier's Joy
R: reel
M: 4/4
K: Dmajor
dB|:A2 F2 D2 F2|DFABd2 dB|A2 F2 D2 F2|EDEF E2dB|
A2 F2 D2 F2|DFAB d2de|fedf egfe|dBAF D4:|
|:defg a2f2|e2f2 g4|defg a2f2|e2c2 A4|
defg a2f2|e2f2 g4|fagf egfe|dBAF D4:|

